rospo-icon-theme-classic-common/24x24/apps/soulseek.svg

<svg height="24" width="24" xmlns="http://www.w3.org/2000/svg"><path d="m12 2c-5.5400001 0-10 4.4599999-10 10 0 5.54 4.4599999 10 10 10 5.54 0 10-4.46 10-10 0-5.5400001-4.46-10-10-10z" fill="#4f4f4f"/><path d="m12 2c-5.5395076 0-9.9991111 4.4599999-9.9991111 10 0 .084-.002.1665 0 .25.1321882-5.4230001 4.543596-9.75 9.9991111-9.75 5.455515 0 9.867123 4.3269999 9.999111 9.75.002-.0835 0-.166 0-.25 0-5.5400001-4.459604-10-9.999111-10z" fill="#fff" opacity=".1"/><path d="m2.00585 12.25c-.00205.0835-.00585.166-.00585.25 0 5.54 4.4599999 10 10 10 5.54 0 10-4.46 10-10 0-.084-.004-.1665-.006-.25-.132 5.423-4.538 9.75-9.994 9.75-5.4560001 0-9.862-4.327-9.994-9.75z" opacity=".2"/><path d="m9.281745 17.750066c-.338153-.723404-.3376055-.708219-.04149-1.14994.410666-.612633 1.30209-1.702309 1.30209-1.999681 0-.187454-.184304-.335215-.640865-.513796-.983689-.384766-2.2469785-1.035252-2.9342804-1.546648-.84181-.626358-1.628031-1.130357-1.8729375-1.948431-.172178-.575135-.1149105-.6993609.2249955-.488057 1.7835149 1.032441 2.3408669 1.235279 4.1083754 1.396907 1.098155-.0482 1.67555-.914478 1.632553-1.6938884-.03516-.587931-.235938-1.5880738-.469743-2.3406662-.131854-.4244155-.05853-.573122-.03447-.736106.01657-.112335.05906-.2155125.09438-.2292845.473692.399601 1.03247.4305165 1.395375.564576 1.071401.408884 1.446391.643554 1.60023 1.2818799.07681.318683.496835.533891.713834.7472215.102841.1011005.186986.210226.186986.242499 0 .164097-.741013.2040225-1.177658.079562-.383906-.1094265-.42412.6690457-.384669 1.0232687.05904.941788.995518.979022 2.036883 1.060938.868471.06832 2.349679-.329248 3.475128-.816685.235704-.102086.462292-.178475.503536-.169755-.383876 1.658326-2.034876 2.640977-3.461677 3.245878-.703803.286845-1.719931.614067-2.025139.652149-.75882.09469-1.018956.194843-1.141623.439549-.13983.278932-.345355 1.563044-.421559 2.539589-.117641.527402-.504097.833579-.904416.98604-.830241.2987-1.2911231.05606-1.763839-.627119z" opacity=".2"/><path d="m9.281745 17.24959c-.338153-.723404-.3376055-.708219-.04149-1.14994.410666-.612633 1.30209-1.702309 1.30209-1.999681 0-.187454-.184304-.335215-.640865-.513796-.983689-.384766-2.2469785-1.035252-2.9342804-1.546648-.84181-.626358-1.628031-1.130357-1.8729375-1.948431-.172178-.5751354-.1149105-.6993609.2249955-.4880569 1.7835149 1.0324409 2.3408669 1.2352789 4.1083754 1.3969069 1.098155-.0482 1.67555-.914478 1.632553-1.6938884-.03516-.587931-.235938-1.5880738-.469743-2.3406662-.131854-.4244155-.05853-.573122-.03447-.736106.01657-.112335.05906-.2155125.09438-.2292845.473692.399601 1.03247.4305165 1.395375.564576 1.071401.408884 1.446391.643554 1.60023 1.2818799.07681.318683.496835.533891.713834.7472215.102841.1011005.186986.210226.186986.242499 0 .164097-.741013.2040225-1.177658.079562-.383906-.1094265-.42412.6690453-.384669 1.0232688.05904.9417879.995518.9790219 2.036883 1.0609379.868471.06832 2.349679-.329248 3.475128-.816685.235704-.102086.462292-.178475.503536-.169755-.383876 1.658326-2.034876 2.640977-3.461677 3.245878-.703803.286845-1.719931.614067-2.025139.652149-.75882.09469-1.018956.194843-1.141623.439549-.13983.278932-.345355 1.563044-.421559 2.539589-.117641.527402-.504097.833579-.904416.98604-.830241.2987-1.2911231.05606-1.763839-.627119z" fill="#4895fb"/><path d="m10.650391 6c-.03532.013772-.07718.1161806-.09375.2285156-.018349.1242947-.039155.27932-.001953.515625.000668-.0041143.001343-.0095439.001953-.0136718.01657-.112335.05843-.2166968.09375-.2304688.473692.399601 1.031626.4303936 1.394531.5644531 1.071401.408884 1.447723.6448772 1.601562 1.2832031.062661.2599783.339576.4456374.5625.6230469.189165-.0216244.337891-.0646166.337891-.1347656 0-.032273-.084659-.141087-.1875-.2421875-.216999-.2133305-.636081-.4293639-.712891-.7480469-.153839-.6383259-.530161-.872366-1.601562-1.28125-.362905-.1340595-.920839-.1648521-1.394531-.5644531zm-5.5332035 3.5097656c-.1418563-.0255228-.1446526.1414244-.0390625.5156254.0521586-.011816.1228453.005149.2402344.078125 1.7835149 1.032441 2.3418665 1.234856 4.109375 1.396484 1.0981546-.0482 1.6758096-.913949 1.6328126-1.6933594-.002569-.0429575-.019152-.1150079-.023438-.1621094-.11385.6730218-.668723 1.3141818-1.6093746 1.3554688-1.7675085-.161628-2.3258601-.364043-4.109375-1.3964844-.0849765-.052826-.1506941-.084668-.2011719-.09375zm7.8750005.4648438c-.016588.1704296-.021517.3417986-.007813.4648436.05904.941788.995744.978631 2.037109 1.060547.868471.06832 2.349161-.328969 3.47461-.816406.145365-.06296.213455-.075994.310547-.105469.079679-.179615.147419-.365995.193359-.564453-.041244-.00872-.268202.067836-.503906.169922-1.125449.487437-2.606139.884726-3.47461.816406-1.026658-.080759-1.946809-.121905-2.029296-1.0253906zm-2.564454 4.4042966c-.24019.450311-.8582783 1.22957-1.1874996 1.720703-.2230667.332753-.2773115.407179-.1464844.732422.036053-.065523.0815562-.135567.1464844-.232422.410666-.612633 1.3027346-1.702628 1.3027346-2 0-.079252-.042701-.150312-.115235-.220703z" fill="#fff" opacity=".1"/></svg>

<svg xmlns="http://www.w3.org/2000/svg" width="24" height="24" version="1">
 <path style="fill:#4f4f4f" d="M 12,2 C 6.4599999,2 2,6.4599999 2,12 2,17.54 6.4599999,22 12,22 17.54,22 22,17.54 22,12 22,6.4599999 17.54,2 12,2 Z"/>
 <path style="opacity:0.1;fill:#ffffff" d="M 12,2 C 6.4604924,2 2.0008889,6.4599999 2.0008889,12 c 0,0.084 -0.002,0.1665 0,0.25 C 2.1330771,6.8269999 6.5444849,2.5 12,2.5 c 5.455515,0 9.867123,4.3269999 9.999111,9.75 0.002,-0.0835 0,-0.166 0,-0.25 C 21.999111,6.4599999 17.539507,2 12,2 Z"/>
 <path style="opacity:0.2" d="M 2.00585,12.25 C 2.0038,12.3335 2,12.416 2,12.5 c 0,5.54 4.4599999,10 10,10 5.54,0 10,-4.46 10,-10 0,-0.084 -0.004,-0.1665 -0.006,-0.25 C 21.862,17.673 17.456,22 12,22 6.5439999,22 2.138,17.673 2.006,12.25 Z"/>
 <path style="opacity:0.2" d="m 9.281745,17.750066 c -0.338153,-0.723404 -0.3376055,-0.708219 -0.04149,-1.14994 0.410666,-0.612633 1.30209,-1.702309 1.30209,-1.999681 0,-0.187454 -0.184304,-0.335215 -0.640865,-0.513796 C 8.917791,13.701883 7.6545015,13.051397 6.9671996,12.540001 6.1253896,11.913643 5.3391686,11.409644 5.0942621,10.59157 4.9220841,10.016435 4.9793516,9.8922091 5.3192576,10.103513 c 1.7835149,1.032441 2.3408669,1.235279 4.1083754,1.396907 1.098155,-0.0482 1.67555,-0.914478 1.632553,-1.6938884 -0.03516,-0.587931 -0.235938,-1.5880738 -0.469743,-2.3406662 -0.131854,-0.4244155 -0.05853,-0.573122 -0.03447,-0.736106 0.01657,-0.112335 0.05906,-0.2155125 0.09438,-0.2292845 0.473692,0.399601 1.03247,0.4305165 1.395375,0.564576 1.071401,0.408884 1.446391,0.643554 1.60023,1.2818799 0.07681,0.318683 0.496835,0.533891 0.713834,0.7472215 0.102841,0.1011005 0.186986,0.210226 0.186986,0.242499 0,0.164097 -0.741013,0.2040225 -1.177658,0.079562 -0.383906,-0.1094265 -0.42412,0.6690457 -0.384669,1.0232687 0.05904,0.941788 0.995518,0.979022 2.036883,1.060938 0.868471,0.06832 2.349679,-0.329248 3.475128,-0.816685 0.235704,-0.102086 0.462292,-0.178475 0.503536,-0.169755 -0.383876,1.658326 -2.034876,2.640977 -3.461677,3.245878 -0.703803,0.286845 -1.719931,0.614067 -2.025139,0.652149 -0.75882,0.09469 -1.018956,0.194843 -1.141623,0.439549 -0.13983,0.278932 -0.345355,1.563044 -0.421559,2.539589 -0.117641,0.527402 -0.504097,0.833579 -0.904416,0.98604 -0.830241,0.2987 -1.2911231,0.05606 -1.763839,-0.627119 z"/>
 <path style="fill:#4895fb" d="m 9.281745,17.24959 c -0.338153,-0.723404 -0.3376055,-0.708219 -0.04149,-1.14994 0.410666,-0.612633 1.30209,-1.702309 1.30209,-1.999681 0,-0.187454 -0.184304,-0.335215 -0.640865,-0.513796 C 8.917791,13.201407 7.6545015,12.550921 6.9671996,12.039525 6.1253896,11.413167 5.3391686,10.909168 5.0942621,10.091094 4.9220841,9.5159586 4.9793516,9.3917331 5.3192576,9.6030371 7.1027725,10.635478 7.6601245,10.838316 9.427633,10.999944 c 1.098155,-0.0482 1.67555,-0.914478 1.632553,-1.6938884 -0.03516,-0.587931 -0.235938,-1.5880738 -0.469743,-2.3406662 -0.131854,-0.4244155 -0.05853,-0.573122 -0.03447,-0.736106 0.01657,-0.112335 0.05906,-0.2155125 0.09438,-0.2292845 0.473692,0.399601 1.03247,0.4305165 1.395375,0.564576 1.071401,0.408884 1.446391,0.643554 1.60023,1.2818799 0.07681,0.318683 0.496835,0.533891 0.713834,0.7472215 0.102841,0.1011005 0.186986,0.210226 0.186986,0.242499 0,0.164097 -0.741013,0.2040225 -1.177658,0.079562 -0.383906,-0.1094265 -0.42412,0.6690453 -0.384669,1.0232688 0.05904,0.9417879 0.995518,0.9790219 2.036883,1.0609379 0.868471,0.06832 2.349679,-0.329248 3.475128,-0.816685 0.235704,-0.102086 0.462292,-0.178475 0.503536,-0.169755 -0.383876,1.658326 -2.034876,2.640977 -3.461677,3.245878 -0.703803,0.286845 -1.719931,0.614067 -2.025139,0.652149 -0.75882,0.09469 -1.018956,0.194843 -1.141623,0.439549 -0.13983,0.278932 -0.345355,1.563044 -0.421559,2.539589 -0.117641,0.527402 -0.504097,0.833579 -0.904416,0.98604 -0.830241,0.2987 -1.2911231,0.05606 -1.763839,-0.627119 z"/>
 <path style="fill:#ffffff;opacity:0.1" d="M 10.650391 6 C 10.615071 6.013772 10.573211 6.1161806 10.556641 6.2285156 C 10.538292 6.3528103 10.517486 6.5078356 10.554688 6.7441406 C 10.555356 6.7400263 10.556031 6.7345967 10.556641 6.7304688 C 10.573211 6.6181338 10.615071 6.513772 10.650391 6.5 C 11.124083 6.899601 11.682017 6.9303936 12.044922 7.0644531 C 13.116323 7.4733371 13.492645 7.7093303 13.646484 8.3476562 C 13.709145 8.6076345 13.98606 8.7932936 14.208984 8.9707031 C 14.398149 8.9490787 14.546875 8.9060865 14.546875 8.8359375 C 14.546875 8.8036645 14.462216 8.6948505 14.359375 8.59375 C 14.142376 8.3804195 13.723294 8.1643861 13.646484 7.8457031 C 13.492645 7.2073772 13.116323 6.9733371 12.044922 6.5644531 C 11.682017 6.4303936 11.124083 6.399601 10.650391 6 z M 5.1171875 9.5097656 C 4.9753312 9.4842428 4.9725349 9.65119 5.078125 10.025391 C 5.1302836 10.013575 5.2009703 10.03054 5.3183594 10.103516 C 7.1018743 11.135957 7.6602259 11.338372 9.4277344 11.5 C 10.525889 11.4518 11.103544 10.586051 11.060547 9.8066406 C 11.057978 9.7636831 11.041395 9.6916327 11.037109 9.6445312 C 10.923259 10.317553 10.368386 10.958713 9.4277344 11 C 7.6602259 10.838372 7.1018743 10.635957 5.3183594 9.6035156 C 5.2333829 9.5506896 5.1676653 9.5188476 5.1171875 9.5097656 z M 12.992188 9.9746094 C 12.9756 10.145039 12.970671 10.316408 12.984375 10.439453 C 13.043415 11.381241 13.980119 11.418084 15.021484 11.5 C 15.889955 11.56832 17.370645 11.171031 18.496094 10.683594 C 18.641459 10.620634 18.709549 10.6076 18.806641 10.578125 C 18.88632 10.39851 18.95406 10.21213 19 10.013672 C 18.958756 10.004952 18.731798 10.081508 18.496094 10.183594 C 17.370645 10.671031 15.889955 11.06832 15.021484 11 C 13.994826 10.919241 13.074675 10.878095 12.992188 9.9746094 z M 10.427734 14.378906 C 10.187544 14.829217 9.5694557 15.608476 9.2402344 16.099609 C 9.0171677 16.432362 8.9629229 16.506788 9.09375 16.832031 C 9.129803 16.766508 9.1753062 16.696464 9.2402344 16.599609 C 9.6509004 15.986976 10.542969 14.896981 10.542969 14.599609 C 10.542969 14.520357 10.500268 14.449297 10.427734 14.378906 z"/>
</svg>
